X: 1816
T: Sînemde Bir Tutuşmuş...
C: ?
O: Turkey
F: http://compmusic.upf.edu/node/140
N: huseyni--turku--curcuna--sinemde_bir--
N: makam= huseyni
N: form= turku
N: usul= curcuna = 10/8
M: 10/8
L: 1/16
K: C _2/4B ^3/4f  
Q: 1/4=252
%%MIDI tuningsystem comma53
A4 g2f2 g2e4e4c2  | d4 d4 B2c3dc2 B2A2  | \
w:  ARANAĞME  |   | 
A4 g2f2 g2e4e4d2  | 
w:   | 
d4 g2f2 e2f2 g2a6  | a4 c'2b2 a2g2 f2e4d2  | \
w:   |   | 
d2c2 d2e4c2 d2c4B2  | 
w:   | 
A2G2 A2B2 c2d2 e2c2 B2A2  | A2B2 d2c2 B2B2 A2A6  | \
w:   |   | 
A4 g2f2 g2e4e4c2  | 
w:  ARANAĞME  | 
d4 d4 B2c3dc2 B2A2  | A4 g2f2 g2e4e4d2  | \
w:   |   | 
d4 g2f2 e2f2 g2a6  | 
w:   | 
a4 c'2b2 a2g2 f2e4d2  | d2c2 d2e4c2 d2c4B2  | \
w:   |   | 
A2G2 A2B2 c2d2 e2c2 B2A2  | 
w:   | 
A2B2 d2c2 B2B2 A2gf edef  | g4 f2g4g2 f2g4f2  | \
w:   |  *  Sî nem de  *  bir   | 
g4 f2e2 d2f2 g2a4z2  | 
w:  tu tuş *  *  muş   | 
c'2b2 a2g2 f2e2 d2d4B2  | c4 c2B2 A2A4gf edef  | \
w:  yan *  *  mış_ *  o *  cağ  |  o lay *  *  dı   SAZ  | 
g4 f2g4g2 f2g4f2  | 
w:  *  Sî nem de  *  bir   | 
g4 f2e2 d2f2 g2a4z2  | c'2b2 a2g2 f2e2 d2d4B2  | \
w:  tu tuş *  *  muş   |  yan *  *  mış_ *  o *  cağ  | 
c4 c2B2 A2A4e=f eddc  | 
w:  o lay *  *  dı   SAZ  | 
d4 c2d4d4d4B2  | c4 c2B2 A2c2 BAB4A2  | \
w:  *  Zül fün  ka ran  |  lı ğın *  *  da   | 
e4 d2d4d2 c2B2 A2B2  | 
w:  bez *  me  çe *  rağ   | 
c3d c2B2 A2A4e=f eddc  | d4 c2d4d4d4B2  | \
w:  o *  lay *  *  dı   SAZ  |  *  Zül fün  ka ran  | 
c4 c2B2 A2c2 BAB4A2  | 
w:  lı ğın *  *  da   | 
e4 d2d4d2 c2B2 A2B2  | c4 d2B2 A2A4gf edef  | \
w:  bez *  me  çe *  rağ   |  o lay *  *  dı   SAZ  | 
g4 f2g4g2 f2g4f2  | 
w:  *  No lay dı  *  yâr   | 
g4 f2e2 d2f2 g2a4z2  | c'2b2 a2g2 f2e2 d2d4B2  | \
w:  o lay *  *  dı   |  yâr  *  *  bâ *  de  *  dol  | 
c3d c2B2 A2A4gf edef  | 
w:  du *  ray *  *  dı   SAZ  | 
g4 f2g4g2 f2g4f2  | g4 f2e2 d2f2 g2a4z2  | \
w:  *  No lay dı  *  yâr   |  o lay *  *  dı   | 
c'2b2 a2g2 f2e2 d2d4B2  | 
w:  yâr  *  *  bâ *  de  *  dol  | 
c4 d2B2 A2A4e=f eddc  | d4 c2d4d4d4B2  | \
w:  du ray *  *  dı   SAZ  |  *  Şu  ga rip  gön  | 
c4 c2B2 A2c2 BAB4A2  | 
w:  lüm_ i *  *  çin   | 
{d}e4 d2d4d2 c2B2 A2B2  | c3d c2B2 A2A4e=f eddc  | \
w:  *  ka *  nun_ i *  cad_  |  o *  lay *  *  dı   SAZ  | 
d4 c2d4d4d4B2  | 
w:  *  Şu  ga rip  gön  | 
c4 c2B2 A2c2 BAB4A2  | {d}e4 d2d4d2 c2B2 A2B2  | \
w:  lüm_ i *  *  çin   |  *  ka *  nun_ i *  cad_  | 
c3d c2B2 A2A8z2  | 
w:  o *  lay *  *  dı    | 
A4 g2f2 g2e4e4c2  | d4 d4 B2c3dc2 B2A2  | \
w:  ARANAĞME  |   | 
A4 g2f2 g2e4e4d2  | 
w:   | 
d4 g2f2 e2f2 g2a6  | a4 c'2b2 a2g2 f2e4d2  | \
w:   |   | 
d2c2 d2e4c2 d2c4B2  | 
w:   | 
A2G2 A2B2 c2d2 e2c2 B2A2  | A2B2 d2c2 B2B2 A2A6  | \
w:   |   | 
A4 g2f2 g2e4e4c2  | 
w:  ARANAĞME  | 
d4 d4 B2c3dc2 B2A2  | A4 g2f2 g2e4e4d2  | \
w:   |   | 
d4 g2f2 e2f2 g2a6  | 
w:   | 
a4 c'2b2 a2g2 f2e4d2  | d2c2 d2e4c2 d2c4B2  | \
w:   |   | 
A2G2 A2B2 c2d2 e2c2 B2A2  | 
w:   | 
A2B2 d2c2 B2B2 A2gf edef  | g4 f2g4g2 f2g4f2  | \
w:   |  *  Sî nem de  *  bir   | 
g4 f2e2 d2f2 g2a4z2  | 
w:  tu tuş *  *  muş   | 
c'2b2 a2g2 f2e2 d2d4B2  | c4 c2B2 A2A4gf edef  | \
w:  yan *  *  mış_ *  o *  cağ  |  o lay *  *  dı   SAZ  | 
g4 f2g4g2 f2g4f2  | 
w:  *  Sî nem de  *  bir   | 
g4 f2e2 d2f2 g2a4z2  | c'2b2 a2g2 f2e2 d2d4B2  | \
w:  tu tuş *  *  muş   |  yan *  *  mış_ *  o *  cağ  | 
c4 c2B2 A2A4e=f eddc  | 
w:  o lay *  *  dı   SAZ  | 
d4 c2d4d4d4B2  | c4 c2B2 A2c2 BAB4A2  | \
w:  *  Zül fün  ka ran  |  lı ğın *  *  da   | 
e4 d2d4d2 c2B2 A2B2  | 
w:  bez *  me  çe *  rağ   | 
c3d c2B2 A2A4e=f eddc  | d4 c2d4d4d4B2  | \
w:  o *  lay *  *  dı   SAZ  |  *  Zül fün  ka ran  | 
c4 c2B2 A2c2 BAB4A2  | 
w:  lı ğın *  *  da   | 
e4 d2d4d2 c2B2 A2B2  | c4 d2B2 A2A4gf edef  | \
w:  bez *  me  çe *  rağ   |  o lay *  *  dı   SAZ  | 
g4 f2g4g2 f2g4f2  | 
w:  *  No lay dı  *  yâr   | 
g4 f2e2 d2f2 g2a4z2  | c'2b2 a2g2 f2e2 d2d4B2  | \
w:  o lay *  *  dı   |  yâr  *  *  bâ *  de  *  dol  | 
c3d c2B2 A2A4gf edef  | 
w:  du *  ray *  *  dı   SAZ  | 
g4 f2g4g2 f2g4f2  | g4 f2e2 d2f2 g2a4z2  | \
w:  *  No lay dı  *  yâr   |  o lay *  *  dı   | 
c'2b2 a2g2 f2e2 d2d4B2  | 
w:  yâr  *  *  bâ *  de  *  dol  | 
c4 d2B2 A2A4e=f eddc  | d4 c2d4d4d4B2  | \
w:  du ray *  *  dı   SAZ  |  *  Şu  ga rip  gön  | 
c4 c2B2 A2c2 BAB4A2  | 
w:  lüm_ i *  *  çin   | 
{d}e4 d2d4d2 c2B2 A2B2  | c3d c2B2 A2A4e=f eddc  | \
w:  *  ka *  nun_ i *  cad_  |  o *  lay *  *  dı   SAZ  | 
d4 c2d4d4d4B2  | 
w:  *  Şu  ga rip  gön  | 
c4 c2B2 A2c2 BAB4A2  | {d}e4 d2d4d2 c2B2 A2B2  | \
w:  lüm_ i *  *  çin   |  *  ka *  nun_ i *  cad_  | 
c3d c2B2 A2A8z2  | 
w:  o *  lay *  *  dı    | 
|


